packages/katcn/src/icons/svg/mouse-solid.svg

<svg width="24" height="25" viewBox="0 0 24 25" fill="none" xmlns="http://www.w3.org/2000/svg">
<path d="M12 22.312C8.15 22.312 5 19.0243 5 15.0061V9.61795C5 5.59968 8.15 2.31201 12 2.31201C15.85 2.31201 19 5.59968 19 9.61795V15.0061C19 19.0243 15.85 22.312 12 22.312Z" fill="black"/>
<path d="M12 11.412C11.4 11.412 11 11.012 11 10.412V6.81201C11 6.21201 11.4 5.81201 12 5.81201C12.6 5.81201 13 6.21201 13 6.81201V10.412C13 11.012 12.6 11.412 12 11.412Z" fill="white"/>
</svg>

<svg xmlns="http://www.w3.org/2000/svg" fill="none" viewBox="0 0 24 25"><path fill="#000" d="M12 22.312c-3.85 0-7-3.288-7-7.306V9.618C5 5.6 8.15 2.312 12 2.312s7 3.288 7 7.306v5.388c0 4.018-3.15 7.306-7 7.306"/><path fill="#fff" d="M12 11.412c-.6 0-1-.4-1-1v-3.6c0-.6.4-1 1-1s1 .4 1 1v3.6c0 .6-.4 1-1 1"/></svg>
